IMB-X-Files/The-Ambassadors-Assets/660d407cd0c29838b1377a7d_Logo-4.svg

<svg fill="none" height="59" viewBox="0 0 184 59" width="184" xmlns="http://www.w3.org/2000/svg"><g fill="#fff"><path d="m168.137 45.7095c.096.001.192-.0178.281-.0551s.169-.0923.236-.1617c.066-.0693.118-.1516.151-.2415.033-.09.048-.1858.042-.2815 0-.5246-.319-.7753-.973-.7753h-1.056v2.7469h.397v-1.1974h.489l.011.0146.758 1.1828h.424l-.815-1.2242zm-.46-.2752h-.461v-.9286h.584c.302 0 .646.049.646.4413 0 .4512-.348.4873-.771.4873"/><path d="m13.3271 15.6742h5.8656v21.2197h10.859v5.3761h-16.7246z"/><path d="m32.6448 24.2373h5.6349v18.0228h-5.6349zm2.8175-8.9601c.6465.0002 1.2784.1907 1.8159.5475s.9564.8638 1.2037 1.4571c.2473.5932.3119 1.2459.1857 1.8757-.1261.6297-.4375 1.2081-.8947 1.6621-.4572.4539-1.0396.7631-1.6737.8883s-1.2913.0609-1.8886-.1848c-.5972-.2458-1.1077-.6619-1.4669-1.1958-.3591-.5338-.5508-1.1615-.5508-1.8036 0-.4263.0845-.8486.2489-1.2425.1643-.3939.4051-.7518.7087-1.0533s.664-.5406 1.0607-.7037c.3966-.1631.8218-.247 1.2511-.247z"/><path d="m61.8513 15.6702h5.6349v15.8944l6.3862-7.3354h6.9087l-7.3958 8.3439 7.2402 9.6946h-7.0823l-5.9818-8.9088h-.074v8.9076h-5.6349z"/><path d="m41.4043 24.2391h5.4113v2.463h.0768c.5405-.9197 1.3224-1.6763 2.2621-2.1891.9398-.5127 2.0021-.7624 3.0735-.7222 5.7142 0 6.766 3.7338 6.766 8.5846v9.8835h-5.6349v-8.7625c0-2.0916-.0387-4.7802-2.9349-4.7802-2.9289 0-3.3809 2.2776-3.3809 4.6281v8.9123h-5.6349z"/><path d="m92.6477 31.1524c.0108-.454-.0714-.9055-.2414-1.3271-.1701-.4215-.4246-.8044-.748-1.1255-.3235-.321-.7092-.5735-1.1338-.7421s-.8792-.2499-1.3364-.2389c-.9846-.0608-1.9538.265-2.6986.9073-.7449.6423-1.2058 1.5496-1.2834 2.5263zm4.7732 7.9866c-.9363 1.1277-2.1135 2.0345-3.4463 2.6547-1.3327.6202-2.7876.9382-4.2594.9311-5.6349 0-10.1464-3.7356-10.1464-9.5204 0-5.7847 4.5109-9.5185 10.1464-9.5185 5.2669 0 8.5698 3.7309 8.5698 9.5185v1.7548h-13.0789c.1628.9951.6823 1.8983 1.4627 2.5431s1.7691.9877 2.784.9657c.8021-.0049 1.5901-.209 2.2925-.5937.7023-.3847 1.2967-.9377 1.7289-1.6087z"/><path d="m110.03 28.5938c-2.817 0-4.508 1.8684-4.508 4.5908s1.69 4.5926 4.508 4.5926 4.512-1.8655 4.512-4.5926-1.691-4.5908-4.512-4.5908zm9.7 13.6628h-5.188v-2.3901h-.077c-.65.8694-1.494 1.5778-2.466 2.07-.972.4923-2.045.755-3.136.7679-5.414 0-8.9802-3.8808-8.9802-9.3688 0-5.0403 3.1562-9.6684 8.3442-9.6684 2.332 0 4.51.6337 5.788 2.3902h.074v-10.389h5.64z"/><path d="m157.771 42.2671h-5.635v-8.7642c0-2.0899-.038-4.7803-2.931-4.7803-2.935 0-3.384 2.2771-3.384 4.6281v8.9158h-5.635v-18.0227h5.41v2.463h.076c.541-.9193 1.323-1.6756 2.263-2.1883s2.002-.7625 3.074-.723c5.711 0 6.764 3.7309 6.764 8.5846zm-23.943-20.4869c-.646.0001-1.279-.1903-1.816-.547-.538-.3568-.957-.8639-1.205-1.4573s-.313-1.2464-.187-1.8764c.127-.63.438-1.2088.895-1.663.457-.4543 1.04-.7637 1.674-.8892.635-.1254 1.292-.0612 1.89.1845.597.2457 1.108.6619 1.467 1.1959.36.534.552 1.1619.552 1.8042 0 .4265-.085.8488-.249 1.2429-.164.394-.405.7521-.709 1.0537-.303.3017-.664.5409-1.06.7042-.397.1633-.822.2474-1.252.2475zm2.818 20.4869h-5.641v-18.0233h5.641zm23.934-32.1794h-32.407c-.735-.0082-1.444.2739-1.97.7844s-.827 1.2076-.836 1.9381v32.3187c.009.7308.309 1.4284.835 1.9394.527.511 1.236.7937 1.971.7859h32.407c.737.0092 1.448-.2727 1.977-.7837.528-.511.83-1.2093.841-1.9416v-32.3211c-.011-.7319-.314-1.4298-.842-1.9403-.528-.5104-1.239-.7917-1.976-.7821"/><path d="m167.725 42.9707c-.685.0066-1.34.2825-1.822.7674-.481.485-.749 1.1395-.746 1.8204s.278 1.3328.764 1.8132c.486.4803 1.144.7499 1.829.7499.686 0 1.344-.2696 1.829-.7499.486-.4804.761-1.1323.764-1.8132.004-.6809-.265-1.3354-.746-1.8204-.481-.4849-1.136-.7608-1.822-.7674zm0 4.8561c-.449.0074-.891-.1178-1.269-.3597s-.676-.5898-.855-.9995c-.179-.4098-.231-.8631-.151-1.3025.081-.4395.29-.8454.603-1.1665s.714-.5428 1.154-.6372c.439-.0945.897-.0573 1.316.1067.418.1641.778.4476 1.034.8148s.397.8016.404 1.2482v.0379c.013.5859-.21 1.1527-.618 1.5759s-.969.668-1.558.6807h-.059"/></g></svg>

<svg width="184" height="59" viewBox="0 0 184 59" fill="none" xmlns="http://www.w3.org/2000/svg">
    <path
        d="M168.137 45.7095C168.233 45.7105 168.329 45.6917 168.418 45.6544C168.507 45.6171 168.587 45.5621 168.654 45.4927C168.72 45.4234 168.772 45.3411 168.805 45.2512C168.838 45.1612 168.853 45.0654 168.847 44.9697C168.847 44.4451 168.528 44.1944 167.874 44.1944H166.818V46.9413H167.215V45.7439H167.704L167.715 45.7585L168.473 46.9413H168.897L168.082 45.7171L168.137 45.7095ZM167.677 45.4343H167.216V44.5057H167.8C168.102 44.5057 168.446 44.5547 168.446 44.947C168.446 45.3982 168.098 45.4343 167.675 45.4343"
        fill="white" />
    <path d="M13.3271 15.6742H19.1927V36.8939H30.0517V42.27H13.3271V15.6742Z" fill="white" />
    <path
        d="M32.6448 24.2373H38.2797V42.2601H32.6448V24.2373ZM35.4623 15.2772C36.1088 15.2774 36.7407 15.4679 37.2782 15.8247C37.8157 16.1815 38.2346 16.6885 38.4819 17.2818C38.7292 17.875 38.7938 18.5277 38.6676 19.1575C38.5415 19.7872 38.2301 20.3656 37.7729 20.8196C37.3157 21.2735 36.7333 21.5827 36.0992 21.7079C35.4651 21.8331 34.8079 21.7688 34.2106 21.5231C33.6134 21.2773 33.1029 20.8612 32.7437 20.3273C32.3846 19.7935 32.1929 19.1658 32.1929 18.5237C32.1929 18.0974 32.2774 17.6751 32.4418 17.2812C32.6061 16.8873 32.8469 16.5294 33.1505 16.2279C33.4541 15.9264 33.8145 15.6873 34.2112 15.5242C34.6078 15.3611 35.033 15.2772 35.4623 15.2772Z"
        fill="white" />
    <path
        d="M61.8513 15.6702H67.4862V31.5646L73.8724 24.2292H80.7811L73.3853 32.5731L80.6255 42.2677H73.5432L67.5614 33.3589H67.4874V42.2665H61.8525L61.8513 15.6702Z"
        fill="white" />
    <path
        d="M41.4043 24.2391H46.8156V26.7021H46.8924C47.4329 25.7824 48.2148 25.0258 49.1545 24.513C50.0943 24.0003 51.1566 23.7506 52.228 23.7908C57.9422 23.7908 58.994 27.5246 58.994 32.3754V42.2589H53.3591V33.4964C53.3591 31.4048 53.3204 28.7162 50.4242 28.7162C47.4953 28.7162 47.0433 30.9938 47.0433 33.3443V42.2566H41.4084L41.4043 24.2391Z"
        fill="white" />
    <path
        d="M92.6477 31.1524C92.6585 30.6984 92.5763 30.2469 92.4063 29.8253C92.2362 29.4038 91.9817 29.0209 91.6583 28.6998C91.3348 28.3788 90.9491 28.1263 90.5245 27.9577C90.0999 27.7891 89.6453 27.7078 89.1881 27.7188C88.2035 27.658 87.2343 27.9838 86.4895 28.6261C85.7446 29.2684 85.2837 30.1757 85.2061 31.1524H92.6477ZM97.4209 39.139C96.4846 40.2667 95.3074 41.1735 93.9746 41.7937C92.6419 42.4139 91.187 42.7319 89.7152 42.7248C84.0803 42.7248 79.5688 38.9892 79.5688 33.2044C79.5688 27.4197 84.0797 23.6859 89.7152 23.6859C94.9821 23.6859 98.285 27.4168 98.285 33.2044V34.9592H85.2061C85.3689 35.9543 85.8884 36.8575 86.6688 37.5023C87.4492 38.1471 88.4379 38.49 89.4528 38.468C90.2549 38.4631 91.0429 38.259 91.7453 37.8743C92.4476 37.4896 93.042 36.9366 93.4742 36.2656L97.4209 39.139Z"
        fill="white" />
    <path
        d="M110.03 28.5938C107.213 28.5938 105.522 30.4622 105.522 33.1846C105.522 35.907 107.212 37.7772 110.03 37.7772C112.848 37.7772 114.542 35.9117 114.542 33.1846C114.542 30.4575 112.851 28.5938 110.03 28.5938ZM119.73 42.2566H114.542V39.8665H114.465C113.815 40.7359 112.971 41.4443 111.999 41.9365C111.027 42.4288 109.954 42.6915 108.863 42.7044C103.449 42.7044 99.8828 38.8236 99.8828 33.3356C99.8828 28.2953 103.039 23.6672 108.227 23.6672C110.559 23.6672 112.737 24.3009 114.015 26.0574H114.089V15.6684H119.729L119.73 42.2566Z"
        fill="white" />
    <path
        d="M157.771 42.2671H152.136V33.5029C152.136 31.413 152.098 28.7226 149.205 28.7226C146.27 28.7226 145.821 30.9997 145.821 33.3507V42.2665H140.186V24.2438H145.596V26.7068H145.672C146.213 25.7875 146.995 25.0312 147.935 24.5185C148.875 24.0058 149.937 23.756 151.009 23.7955C156.72 23.7955 157.773 27.5264 157.773 32.3801L157.771 42.2671ZM133.828 21.7802C133.182 21.7803 132.549 21.5899 132.012 21.2332C131.474 20.8764 131.055 20.3693 130.807 19.7759C130.559 19.1825 130.494 18.5295 130.62 17.8995C130.747 17.2695 131.058 16.6907 131.515 16.2365C131.972 15.7822 132.555 15.4728 133.189 15.3473C133.824 15.2219 134.481 15.2861 135.079 15.5318C135.676 15.7775 136.187 16.1937 136.546 16.7277C136.906 17.2617 137.098 17.8896 137.098 18.5319C137.098 18.9584 137.013 19.3807 136.849 19.7748C136.685 20.1688 136.444 20.5269 136.14 20.8285C135.837 21.1302 135.476 21.3694 135.08 21.5327C134.683 21.696 134.258 21.7801 133.828 21.7802ZM136.646 42.2671H131.005V24.2438H136.646V42.2671ZM160.58 10.0877H128.173C127.438 10.0795 126.729 10.3616 126.203 10.8721C125.677 11.3826 125.376 12.0797 125.367 12.8102V45.1289C125.376 45.8597 125.676 46.5573 126.202 47.0683C126.729 47.5793 127.438 47.862 128.173 47.8542H160.58C161.317 47.8634 162.028 47.5815 162.557 47.0705C163.085 46.5595 163.387 45.8612 163.398 45.1289V12.8078C163.387 12.0759 163.084 11.378 162.556 10.8675C162.028 10.3571 161.317 10.0758 160.58 10.0854"
        fill="white" />
    <path
        d="M167.725 42.9707C167.04 42.9773 166.385 43.2532 165.903 43.7381C165.422 44.2231 165.154 44.8776 165.157 45.5585C165.16 46.2394 165.435 46.8913 165.921 47.3717C166.407 47.852 167.065 48.1216 167.75 48.1216C168.436 48.1216 169.094 47.852 169.579 47.3717C170.065 46.8913 170.34 46.2394 170.343 45.5585C170.347 44.8776 170.078 44.2231 169.597 43.7381C169.116 43.2532 168.461 42.9773 167.775 42.9707H167.725ZM167.725 47.8268C167.276 47.8342 166.834 47.709 166.456 47.4671C166.078 47.2252 165.78 46.8773 165.601 46.4676C165.422 46.0578 165.37 45.6045 165.45 45.1651C165.531 44.7256 165.74 44.3197 166.053 43.9986C166.366 43.6775 166.767 43.4558 167.207 43.3614C167.646 43.2669 168.104 43.3041 168.523 43.4681C168.941 43.6322 169.301 43.9157 169.557 44.2829C169.813 44.6501 169.954 45.0845 169.961 45.5311C169.961 45.5439 169.961 45.5562 169.961 45.569C169.974 46.1549 169.751 46.7217 169.343 47.1449C168.935 47.5681 168.374 47.8129 167.785 47.8256H167.726"
        fill="white" />
</svg>
